X: 134
T:Kearney's
R:jig
Z: Tommy Peoples' Jig
Z: (modified version) John Chambers <jc@trillian.mit.edu>
M:6/8
L:1/8
K:G
B | dGF GDB, | G,2G, DB,D | EcB ABG | FED cBA \
| BdB ~G3 | EGE CEG | DGc BEF | AGF G2 :|
|: A | ~B3 Ggf | ecA E2E | DFA ~f3 | ed^c d2=c \
| BdB Ggf | ecA ~E3 | DGc BEF | AGF G2 :|
|: D | GBd ~g3 | ecB c2B | A^ce a2g | fd^c def\
| gdB Ggf | ecA ~E3 | DGc BEF | AGF G2 :|
